src/assets/images/mobile/PigDone.svg

<svg width="73" height="65" viewBox="0 0 73 65" fill="none" xmlns="http://www.w3.org/2000/svg">
<path d="M21.554 15.6136C20.4114 15.7803 19.4994 14.6254 19.9263 13.5525C20.3533 12.4797 21.8095 12.2672 22.5251 13.1734C23.2408 14.0796 22.6966 15.4469 21.554 15.6136Z" fill="#4B4B4B" stroke="black"/>
<rect x="42.752" y="47.5221" width="8.54072" height="10.5852" rx="4.27036" fill="#4B4B4B" stroke="black"/>
<rect x="17.5371" y="47.5221" width="8.54072" height="10.5852" rx="4.27036" fill="#4B4B4B" stroke="black"/>
<mask id="path-4-inside-1_696_22" fill="white">
<path fill-rule="evenodd" clip-rule="evenodd" d="M8.9207 45.7305C8.65441 45.7569 8.38434 45.7704 8.11111 45.7704C3.63147 45.7704 0 42.1389 0 37.6593C0 34.1935 2.17363 31.2355 5.232 30.074C6.98829 21.1437 14.8601 14.4074 24.3053 14.4074H53.5604C64.2963 14.4074 72.9995 23.1106 72.9995 33.8465C72.9995 41.682 68.3637 48.4347 61.6851 51.5115C61.7056 51.7109 61.7161 51.9132 61.7161 52.118V58.2005C61.7161 61.4361 59.0931 64.0591 55.8575 64.0591C52.6219 64.0591 49.9989 61.4361 49.9989 58.2005V53.2856H33.9425V58.2005C33.9425 61.4361 31.3195 64.0591 28.0839 64.0591C24.8483 64.0591 22.2253 61.4361 22.2253 58.2005V53.1756C16.8203 52.6007 12.077 49.8105 8.9207 45.7305Z"/>
</mask>
<path fill-rule="evenodd" clip-rule="evenodd" d="M8.9207 45.7305C8.65441 45.7569 8.38434 45.7704 8.11111 45.7704C3.63147 45.7704 0 42.1389 0 37.6593C0 34.1935 2.17363 31.2355 5.232 30.074C6.98829 21.1437 14.8601 14.4074 24.3053 14.4074H53.5604C64.2963 14.4074 72.9995 23.1106 72.9995 33.8465C72.9995 41.682 68.3637 48.4347 61.6851 51.5115C61.7056 51.7109 61.7161 51.9132 61.7161 52.118V58.2005C61.7161 61.4361 59.0931 64.0591 55.8575 64.0591C52.6219 64.0591 49.9989 61.4361 49.9989 58.2005V53.2856H33.9425V58.2005C33.9425 61.4361 31.3195 64.0591 28.0839 64.0591C24.8483 64.0591 22.2253 61.4361 22.2253 58.2005V53.1756C16.8203 52.6007 12.077 49.8105 8.9207 45.7305Z" fill="url(#paint0_linear_696_22)"/>
<path d="M8.9207 45.7305L9.71165 45.1186L9.37294 44.6808L8.82208 44.7354L8.9207 45.7305ZM5.232 30.074L5.58704 31.0089L6.10607 30.8117L6.21321 30.267L5.232 30.074ZM61.6851 51.5115L61.2667 50.6032L60.6172 50.9024L60.6903 51.6138L61.6851 51.5115ZM49.9989 53.2856H50.9989V52.2856H49.9989V53.2856ZM33.9425 53.2856V52.2856H32.9425V53.2856H33.9425ZM22.2253 53.1756H23.2253V52.2764L22.3311 52.1812L22.2253 53.1756ZM8.82208 44.7354C8.58851 44.7585 8.35135 44.7704 8.11111 44.7704V46.7704C8.41733 46.7704 8.72031 46.7552 9.01931 46.7256L8.82208 44.7354ZM8.11111 44.7704C4.18375 44.7704 1 41.5866 1 37.6593H-1C-1 42.6912 3.07918 46.7704 8.11111 46.7704V44.7704ZM1 37.6593C1 34.6224 2.90411 32.0278 5.58704 31.0089L4.87697 29.1391C1.44315 30.4432 -1 33.7647 -1 37.6593H1ZM6.21321 30.267C7.87906 21.7965 15.3471 15.4074 24.3053 15.4074V13.4074C14.3731 13.4074 6.09753 20.4908 4.2508 29.881L6.21321 30.267ZM24.3053 15.4074H53.5604V13.4074H24.3053V15.4074ZM53.5604 15.4074C63.744 15.4074 71.9995 23.6629 71.9995 33.8465H73.9995C73.9995 22.5583 64.8486 13.4074 53.5604 13.4074V15.4074ZM71.9995 33.8465C71.9995 41.2774 67.6039 47.6837 61.2667 50.6032L62.1035 52.4197C69.1234 49.1857 73.9995 42.0866 73.9995 33.8465H71.9995ZM60.6903 51.6138C60.7074 51.7793 60.7161 51.9475 60.7161 52.118H62.7161C62.7161 51.879 62.7038 51.6425 62.6798 51.4092L60.6903 51.6138ZM60.7161 52.118V58.2005H62.7161V52.118H60.7161ZM60.7161 58.2005C60.7161 60.8838 58.5408 63.0591 55.8575 63.0591V65.0591C59.6454 65.0591 62.7161 61.9884 62.7161 58.2005H60.7161ZM55.8575 63.0591C53.1742 63.0591 50.9989 60.8838 50.9989 58.2005H48.9989C48.9989 61.9884 52.0696 65.0591 55.8575 65.0591V63.0591ZM50.9989 58.2005V53.2856H48.9989V58.2005H50.9989ZM49.9989 52.2856H33.9425V54.2856H49.9989V52.2856ZM32.9425 53.2856V58.2005H34.9425V53.2856H32.9425ZM32.9425 58.2005C32.9425 60.8838 30.7672 63.0591 28.0839 63.0591V65.0591C31.8718 65.0591 34.9425 61.9884 34.9425 58.2005H32.9425ZM28.0839 63.0591C25.4006 63.0591 23.2253 60.8838 23.2253 58.2005H21.2253C21.2253 61.9884 24.296 65.0591 28.0839 65.0591V63.0591ZM23.2253 58.2005V53.1756H21.2253V58.2005H23.2253ZM22.3311 52.1812C17.2066 51.6361 12.7072 48.9909 9.71165 45.1186L8.12974 46.3424C11.4468 50.6302 16.4339 53.5652 22.1195 54.17L22.3311 52.1812Z" fill="black" mask="url(#path-4-inside-1_696_22)"/>
<g filter="url(#filter0_i_696_22)">
<rect x="30.3867" y="14.6271" width="19.6186" height="7.03601" rx="3.51801" transform="rotate(59.3957 30.3867 14.6271)" fill="#C4C4C4"/>
</g>
<rect x="30.2109" y="15.312" width="18.6186" height="6.03601" rx="3.01801" transform="rotate(59.3957 30.2109 15.312)" stroke="black"/>
<circle cx="28.281" cy="20.1036" r="1.02222" fill="#171515"/>
<ellipse cx="31.6892" cy="21.8073" rx="1.02222" ry="0.68148" fill="#171515"/>
<circle cx="33.0514" cy="26.237" r="1.7037" fill="#171515"/>
<circle cx="20.7848" cy="28.9629" r="1.7037" fill="#171515"/>
<circle cx="36.4587" cy="31.0073" r="1.02222" fill="#171515"/>
<circle cx="11.2449" cy="24.1925" r="1.02222" fill="#171515"/>
<path d="M48.5699 52.474H38.1631C38.1631 52.474 42.6225 44.2931 43.1187 33.9021C43.6149 23.5111 38.1631 14.9926 38.1631 14.9926H48.5699C48.5699 14.9926 54.5167 21.4666 54.5167 34.2398C54.5167 41.5349 48.5699 52.474 48.5699 52.474Z" fill="#43D882" stroke="black"/>
<path fill-rule="evenodd" clip-rule="evenodd" d="M47.602 12.1553C47.0323 12.2971 46.449 12.4496 45.8516 12.6131L49.0162 13.3213C61.7062 23.5132 67.8494 21.003 69.6872 17.9471L69.8135 17.9754C69.8193 17.8862 69.8227 17.7957 69.8238 17.704C69.8851 17.587 69.9403 17.4697 69.9895 17.3527L69.8139 17.3111C69.5706 13.3956 64.9488 7.89443 47.8247 12.1002L47.4255 12.0056C47.4844 12.0557 47.5433 12.1056 47.602 12.1553Z" fill="#43D882"/>
<path d="M45.8516 12.6131L45.7196 12.1309L45.7424 13.101L45.8516 12.6131ZM47.602 12.1553L47.7228 12.6405L48.6711 12.4044L47.9248 11.7734L47.602 12.1553ZM49.0162 13.3213L49.3293 12.9315L49.2388 12.8587L49.1254 12.8334L49.0162 13.3213ZM69.6872 17.9471L69.7963 17.4592L69.4445 17.3804L69.2587 17.6894L69.6872 17.9471ZM69.8135 17.9754L69.7043 18.4633L70.2749 18.591L70.3125 18.0076L69.8135 17.9754ZM69.8238 17.704L69.3809 17.472L69.3253 17.5782L69.3239 17.6981L69.8238 17.704ZM69.9895 17.3527L70.4504 17.5463L70.679 17.0022L70.1047 16.8661L69.9895 17.3527ZM69.8139 17.3111L69.3148 17.3421L69.3378 17.7121L69.6986 17.7976L69.8139 17.3111ZM47.8247 12.1002L47.7094 12.5867L47.8268 12.6145L47.944 12.5858L47.8247 12.1002ZM47.4255 12.0056L47.5408 11.5191L47.1015 12.3865L47.4255 12.0056ZM45.9837 13.0954C46.5774 12.9328 47.157 12.7813 47.7228 12.6405L47.4812 11.6701C46.9077 11.8129 46.3206 11.9663 45.7196 12.1309L45.9837 13.0954ZM49.1254 12.8334L45.9608 12.1252L45.7424 13.101L48.907 13.8092L49.1254 12.8334ZM48.7031 13.7111C55.0834 18.8354 59.8865 20.8248 63.3819 21.1006C66.9069 21.3787 69.0912 19.9083 70.1156 18.2048L69.2587 17.6894C68.4454 19.0418 66.6392 20.3545 63.4606 20.1037C60.2526 19.8506 55.639 17.9991 49.3293 12.9315L48.7031 13.7111ZM69.9227 17.4875L69.7963 17.4592L69.578 18.4351L69.7043 18.4633L69.9227 17.4875ZM69.3239 17.6981C69.3229 17.781 69.3197 17.8628 69.3145 17.9432L70.3125 18.0076C70.3188 17.9096 70.3226 17.8103 70.3238 17.7099L69.3239 17.6981ZM70.2667 17.9361C70.3346 17.8066 70.3958 17.6764 70.4504 17.5463L69.5285 17.159C69.4848 17.2629 69.4357 17.3674 69.3809 17.472L70.2667 17.9361ZM70.1047 16.8661L69.9292 16.8245L69.6986 17.7976L69.8742 17.8392L70.1047 16.8661ZM47.944 12.5858C56.4621 10.4937 61.7773 10.8417 64.9629 12.124C68.1167 13.3936 69.2055 15.5834 69.3148 17.3421L70.3129 17.2801C70.1789 15.1233 68.8353 12.6048 65.3363 11.1964C61.8692 9.8007 56.3115 9.50095 47.7055 11.6146L47.944 12.5858ZM47.94 11.6137L47.5408 11.5191L47.3102 12.4921L47.7094 12.5867L47.94 11.6137ZM47.1015 12.3865C47.1609 12.4369 47.2201 12.4872 47.2792 12.5371L47.9248 11.7734C47.8665 11.7241 47.808 11.6745 47.7494 11.6247L47.1015 12.3865Z" fill="black"/>
<path fill-rule="evenodd" clip-rule="evenodd" d="M42.0123 10.051C42.3657 10.4401 42.7243 10.845 43.088 11.2661L40.4287 10.4138C26.3456 13.4319 22.991 8.37675 23.0598 4.84682L22.9538 4.81286C22.991 4.73228 23.0305 4.6516 23.0722 4.57104C23.0815 4.4399 23.0955 4.31134 23.1138 4.18588L23.2626 4.23121C25.2631 0.917005 31.2246 -1.74851 41.8741 9.89925L42.2118 10.0021C42.1451 10.0185 42.0786 10.0348 42.0123 10.051Z" fill="#43D882"/>
<path d="M43.088 11.2661L43.4663 10.9392L44.6286 12.2849L42.9353 11.7422L43.088 11.2661ZM42.0123 10.051L41.6422 10.3871L41.0764 9.76411L41.8941 9.56514L42.0123 10.051ZM40.4287 10.4138L40.324 9.92486L40.4544 9.89691L40.5813 9.93761L40.4287 10.4138ZM23.0598 4.84682L23.2124 4.37068L23.5669 4.48432L23.5597 4.85656L23.0598 4.84682ZM22.9538 4.81286L22.8012 5.289L22.2631 5.11652L22.4998 4.60339L22.9538 4.81286ZM23.0722 4.57104L23.571 4.60641L23.5637 4.7094L23.5162 4.80107L23.0722 4.57104ZM23.1138 4.18588L22.619 4.11382L22.7029 3.53807L23.2595 3.70757L23.1138 4.18588ZM23.2626 4.23121L23.6907 4.48959L23.4894 4.82296L23.1169 4.70952L23.2626 4.23121ZM41.8741 9.89925L41.7284 10.3776L41.5975 10.3377L41.5051 10.2366L41.8741 9.89925ZM42.2118 10.0021L42.3574 9.52378L44.094 10.0526L42.3316 10.4875L42.2118 10.0021ZM42.7096 11.5929C42.3485 11.1748 41.9927 10.7731 41.6422 10.3871L42.3825 9.71482C42.7388 10.1072 43.1 10.5151 43.4663 10.9392L42.7096 11.5929ZM40.5813 9.93761L43.2406 10.7899L42.9353 11.7422L40.2761 10.8899L40.5813 9.93761ZM40.5335 10.9027C33.4456 12.4217 28.9496 11.9354 26.2092 10.5308C23.4337 9.10815 22.5221 6.77563 22.5599 4.83708L23.5597 4.85656C23.5287 6.44794 24.26 8.40796 26.6654 9.64086C29.1058 10.8917 33.3287 11.424 40.324 9.92486L40.5335 10.9027ZM23.1065 4.33672L23.2124 4.37068L22.9072 5.32296L22.8012 5.289L23.1065 4.33672ZM23.5162 4.80107C23.4779 4.87486 23.4418 4.94867 23.4078 5.02234L22.4998 4.60339C22.5402 4.51588 22.583 4.42835 22.6283 4.341L23.5162 4.80107ZM22.5735 4.53566C22.5837 4.39225 22.599 4.25145 22.619 4.11382L23.6086 4.25795C23.5921 4.37122 23.5794 4.48754 23.571 4.60641L22.5735 4.53566ZM23.2595 3.70757L23.4083 3.7529L23.1169 4.70952L22.9681 4.66419L23.2595 3.70757ZM41.5051 10.2366C36.2104 4.44567 32.16 2.30461 29.2644 1.9508C26.4149 1.60263 24.6037 2.97697 23.6907 4.48959L22.8346 3.97282C23.922 2.17124 26.0919 0.555728 29.3856 0.958186C32.6333 1.35501 36.8883 3.70508 42.2431 9.56187L41.5051 10.2366ZM42.0198 9.42094L42.3574 9.52378L42.0661 10.4804L41.7284 10.3776L42.0198 9.42094ZM42.3316 10.4875C42.2643 10.5041 42.1973 10.5205 42.1306 10.5368L41.8941 9.56514C41.9599 9.54914 42.0258 9.53298 42.092 9.51665L42.3316 10.4875Z" fill="black"/>
<circle cx="44.2966" cy="12.2666" r="4.95184" fill="#43D882" stroke="black"/>
<circle cx="48.044" cy="26.237" r="3.74814" fill="white"/>
<circle cx="48.044" cy="26.237" r="3.24814" stroke="black" stroke-opacity="0.87"/>
<circle cx="48.7257" cy="37.1406" r="3.74814" fill="white"/>
<circle cx="48.7257" cy="37.1406" r="3.24814" stroke="black" stroke-opacity="0.87"/>
<circle cx="46.0001" cy="47.3628" r="3.74814" fill="white"/>
<circle cx="46.0001" cy="47.3628" r="3.24814" stroke="black" stroke-opacity="0.87"/>
<defs>
<filter id="filter0_i_696_22" x="25.6309" y="15.9276" width="13.4434" height="21.867" filterUnits="userSpaceOnUse" color-interpolation-filters="sRGB">
<feFlood flood-opacity="0" result="BackgroundImageFix"/>
<feBlend mode="normal" in="SourceGraphic" in2="BackgroundImageFix" result="shape"/>
<feColorMatrix in="SourceAlpha" type="matrix" values="0 0 0 0 0 0 0 0 0 0 0 0 0 0 0 0 0 0 127 0" result="hardAlpha"/>
<feOffset dy="4"/>
<feGaussianBlur stdDeviation="2"/>
<feComposite in2="hardAlpha" operator="arithmetic" k2="-1" k3="1"/>
<feColorMatrix type="matrix" values="0 0 0 0 0 0 0 0 0 0 0 0 0 0 0 0 0 0 0.25 0"/>
<feBlend mode="normal" in2="shape" result="effect1_innerShadow_696_22"/>
</filter>
<linearGradient id="paint0_linear_696_22" x1="7.57032" y1="28.1963" x2="64.8885" y2="46.0405" gradientUnits="userSpaceOnUse">
<stop stop-color="#BF9393"/>
<stop offset="1" stop-color="#323841"/>
</linearGradient>
</defs>
</svg>

<svg width="73" height="65" fill="none" xmlns="http://www.w3.org/2000/svg"><path d="M21.554 15.614c-1.143.166-2.055-.989-1.628-2.062.427-1.072 1.884-1.285 2.6-.379.715.907.17 2.274-.972 2.44z" fill="#4B4B4B" stroke="#000"/><rect x="42.752" y="47.522" width="8.541" height="10.585" rx="4.27" fill="#4B4B4B" stroke="#000"/><rect x="17.537" y="47.522" width="8.541" height="10.585" rx="4.27" fill="#4B4B4B" stroke="#000"/><mask id="b" fill="#fff"><path fill-rule="evenodd" clip-rule="evenodd" d="M8.92 45.73a8.111 8.111 0 0 1-3.689-15.656c1.757-8.93 9.63-15.667 19.074-15.667H53.56c10.736 0 19.44 8.704 19.44 19.44 0 7.835-4.636 14.588-11.315 17.664.02.2.031.402.031.607V58.2A5.859 5.859 0 0 1 50 58.2v-4.914H33.943V58.2a5.859 5.859 0 0 1-11.718 0v-5.024A19.416 19.416 0 0 1 8.921 45.73z"/></mask><path fill-rule="evenodd" clip-rule="evenodd" d="M8.92 45.73a8.111 8.111 0 0 1-3.689-15.656c1.757-8.93 9.63-15.667 19.074-15.667H53.56c10.736 0 19.44 8.704 19.44 19.44 0 7.835-4.636 14.588-11.315 17.664.02.2.031.402.031.607V58.2A5.859 5.859 0 0 1 50 58.2v-4.914H33.943V58.2a5.859 5.859 0 0 1-11.718 0v-5.024A19.416 19.416 0 0 1 8.921 45.73z" fill="url(#a)"/><path d="m8.92 45.73.792-.611-.34-.438-.55.054.099.995zM5.233 30.075l.355.935.52-.197.106-.545-.981-.193zm56.453 21.437-.418-.908-.65.3.073.71.995-.102zM50 53.286h1v-1h-1v1zm-16.056 0v-1h-1v1h1zm-11.718-.11h1v-.9l-.894-.095-.106.995zm-13.403-8.44c-.233.023-.47.034-.71.034v2c.305 0 .608-.015.907-.044l-.197-1.99zm-.71.034A7.111 7.111 0 0 1 1 37.66h-2a9.111 9.111 0 0 0 9.111 9.11v-2zM1 37.66a7.114 7.114 0 0 1 4.587-6.651l-.71-1.87A9.114 9.114 0 0 0-1 37.66h2zm5.213-7.393c1.666-8.47 9.134-14.86 18.092-14.86v-2c-9.932 0-18.207 7.084-20.054 16.474l1.962.386zm18.092-14.86H53.56v-2H24.305v2zm29.255 0c10.184 0 18.44 8.256 18.44 18.44h2c0-11.289-9.151-20.44-20.44-20.44v2zM72 33.847c0 7.43-4.396 13.837-10.733 16.756l.836 1.817C69.123 49.186 74 42.087 74 33.846h-2zM60.69 51.614c.017.165.026.334.026.504h2c0-.239-.012-.476-.036-.709l-1.99.205zm.026.504V58.2h2v-6.082h-2zm0 6.082a4.859 4.859 0 0 1-4.858 4.86v2a6.859 6.859 0 0 0 6.858-6.86h-2zm-4.858 4.86a4.859 4.859 0 0 1-4.86-4.86h-2a6.859 6.859 0 0 0 6.86 6.86v-2zm-4.86-4.86v-4.914h-2V58.2h2zm-1-5.914H33.944v2h16.056v-2zm-17.055 1V58.2h2v-4.914h-2zm0 4.914a4.859 4.859 0 0 1-4.86 4.86v2a6.859 6.859 0 0 0 6.86-6.86h-2zm-4.86 4.86a4.859 4.859 0 0 1-4.858-4.86h-2a6.859 6.859 0 0 0 6.859 6.86v-2zm-4.858-4.86v-5.024h-2V58.2h2zm-.894-6.019a18.416 18.416 0 0 1-12.62-7.062L8.13 46.342a20.416 20.416 0 0 0 13.99 7.828l.211-1.989z" fill="#000" mask="url(#b)"/><g filter="url(#c)"><rect x="30.387" y="14.627" width="19.619" height="7.036" rx="3.518" transform="rotate(59.396 30.387 14.627)" fill="#C4C4C4"/></g><rect x="30.211" y="15.312" width="18.619" height="6.036" rx="3.018" transform="rotate(59.396 30.21 15.312)" stroke="#000"/><circle cx="28.281" cy="20.104" r="1.022" fill="#171515"/><ellipse cx="31.689" cy="21.807" rx="1.022" ry=".681" fill="#171515"/><circle cx="33.051" cy="26.237" r="1.704" fill="#171515"/><circle cx="20.785" cy="28.963" r="1.704" fill="#171515"/><circle cx="36.459" cy="31.007" r="1.022" fill="#171515"/><circle cx="11.245" cy="24.192" r="1.022" fill="#171515"/><path d="M48.57 52.474H38.163s4.46-8.18 4.956-18.572c.496-10.39-4.956-18.91-4.956-18.91H48.57s5.947 6.475 5.947 19.248c0 7.295-5.947 18.234-5.947 18.234z" fill="#43D882" stroke="#000"/><path fill-rule="evenodd" clip-rule="evenodd" d="M47.602 12.155c-.57.142-1.153.295-1.75.458l3.164.708c12.69 10.192 18.833 7.682 20.671 4.626l.127.028c.005-.089.009-.18.01-.271.061-.117.116-.234.166-.351l-.176-.042c-.243-3.915-4.865-9.417-21.99-5.21l-.398-.095.176.15z" fill="#43D882"/><path d="m45.852 12.613-.132-.482.022.97.11-.488zm1.75-.458.12.486.95-.237-.747-.63-.323.381zm1.414 1.166.313-.39-.09-.072-.114-.026-.109.488zm20.671 4.626.11-.488-.352-.079-.186.31.428.257zm.127.028-.11.488.57.128.038-.583-.498-.033zm.01-.271-.443-.232-.056.106-.001.12.5.006zm.166-.351.46.193.229-.544-.574-.136-.115.487zm-.176-.042-.5.031.024.37.36.086.116-.487zm-21.99-5.21-.115.486.118.027.117-.028-.12-.486zm-.398-.095.115-.487-.44.867.325-.38zm-1.442 1.09a76.762 76.762 0 0 1 1.739-.456l-.242-.97c-.573.143-1.16.296-1.761.46l.264.965zm3.141-.263-3.164-.708-.219.976 3.165.708.218-.976zm-.422.878c6.38 5.124 11.183 7.114 14.679 7.39 3.525.278 5.71-1.193 6.734-2.896l-.857-.516c-.814 1.353-2.62 2.666-5.798 2.415-3.208-.253-7.822-2.105-14.132-7.172l-.626.78zm21.22 3.777-.127-.029-.218.976.126.028.219-.976zm-.6.21a4.672 4.672 0 0 1-.008.245l.998.065c.006-.098.01-.198.01-.298l-1-.012zm.944.238c.068-.13.129-.26.183-.39l-.922-.387a4.1 4.1 0 0 1-.147.313l.886.464zm-.162-1.07-.176-.041-.23.973.175.041.23-.973zm-22.161-4.28c8.518-2.092 13.833-1.744 17.019-.462 3.154 1.27 4.243 3.46 4.352 5.218l.998-.062c-.134-2.157-1.478-4.675-4.977-6.084-3.467-1.395-9.024-1.695-17.63.419l.238.97zm-.004-.972-.4-.095-.23.973.4.095.23-.973zm-.838.772.177.151.646-.764-.176-.148-.648.761z" fill="#000"/><path fill-rule="evenodd" clip-rule="evenodd" d="M42.012 10.051c.354.39.712.794 1.076 1.215l-2.66-.852C26.347 13.432 22.992 8.377 23.06 4.847l-.106-.034c.037-.08.076-.161.118-.242.01-.131.024-.26.042-.385l.149.045c2-3.314 7.962-5.98 18.611 5.668l.338.103-.2.049z" fill="#43D882"/><path d="m43.088 11.266.378-.327 1.163 1.346-1.694-.543.153-.476zm-1.076-1.215-.37.336-.566-.623.818-.199.118.486zm-1.583.363-.105-.49.13-.027.127.04-.152.477zm-17.37-5.567.153-.476.355.113-.007.373-.5-.01zm-.105-.034-.153.476-.538-.172.237-.514.454.21zm.118-.242.499.035-.007.103-.048.092-.444-.23zm.042-.385-.495-.072.084-.576.556.17-.145.478zm.149.045.428.259-.202.333-.372-.113.146-.479zM41.874 9.9l-.146.479-.13-.04-.093-.101.37-.338zm.338.103.145-.478 1.737.529-1.762.434-.12-.485zm.498 1.59a64.79 64.79 0 0 0-1.068-1.205l.74-.672c.357.392.718.8 1.084 1.224l-.756.654zM40.58 9.939l2.66.852-.306.952-2.659-.852.305-.952zm-.048.965c-7.087 1.519-11.583 1.032-14.324-.372-2.775-1.423-3.687-3.755-3.65-5.694l1 .02c-.03 1.59.701 3.551 3.106 4.784 2.44 1.25 6.664 1.783 13.659.284l.21.978zM23.106 4.337l.106.034-.305.952-.106-.034.306-.952zm.41.464a5.314 5.314 0 0 0-.108.221l-.908-.419c.04-.087.083-.175.128-.262l.888.46zm-.942-.265c.01-.144.025-.285.045-.422l.99.144c-.017.113-.03.23-.038.348l-.998-.07zm.685-.828.15.045-.292.957-.149-.046.291-.956zm18.246 6.529C36.21 4.446 32.16 2.305 29.265 1.95c-2.85-.348-4.661 1.026-5.574 2.539l-.856-.517C23.922 2.17 26.092.556 29.385.958c3.248.397 7.503 2.747 12.858 8.604l-.738.675zm.515-.816.337.103-.29.956-.339-.102.292-.957zm.312 1.067-.201.049-.237-.972.198-.048.24.97z" fill="#000"/><circle cx="44.297" cy="12.267" r="4.952" fill="#43D882" stroke="#000"/><circle cx="48.044" cy="26.237" r="3.748" fill="#fff"/><circle cx="48.044" cy="26.237" r="3.248" stroke="#000" stroke-opacity=".87"/><circle cx="48.726" cy="37.141" r="3.748" fill="#fff"/><circle cx="48.726" cy="37.141" r="3.248" stroke="#000" stroke-opacity=".87"/><circle cx="46" cy="47.363" r="3.748" fill="#fff"/><circle cx="46" cy="47.363" r="3.248" stroke="#000" stroke-opacity=".87"/><defs><linearGradient id="a" x1="7.57" y1="28.196" x2="64.888" y2="46.041" gradientUnits="userSpaceOnUse"><stop stop-color="#BF9393"/><stop offset="1" stop-color="#323841"/></linearGradient><filter id="c" x="25.631" y="15.928" width="13.443" height="21.867" filterUnits="userSpaceOnUse" color-interpolation-filters="sRGB"><feFlood flood-opacity="0" result="BackgroundImageFix"/><feBlend in="SourceGraphic" in2="BackgroundImageFix" result="shape"/><feColorMatrix in="SourceAlpha" values="0 0 0 0 0 0 0 0 0 0 0 0 0 0 0 0 0 0 127 0" result="hardAlpha"/><feOffset dy="4"/><feGaussianBlur stdDeviation="2"/><feComposite in2="hardAlpha" operator="arithmetic" k2="-1" k3="1"/><feColorMatrix values="0 0 0 0 0 0 0 0 0 0 0 0 0 0 0 0 0 0 0.25 0"/><feBlend in2="shape" result="effect1_innerShadow_696_22"/></filter></defs></svg>
